!!!COM: Bach, Johann Sebastian
!!!CDT: 1685/3/-1750/7/28
!!!OPR@@DE: Das wohltemperierte Klavier
!!!OPR@EN: The Well-Tempered Clavier
!!!OTL: The Well-Tempered Clavier, Book 2, Fugue 11 in F major
!!!SCT: BWV 880b
!!!parts: 3
!!!RWG: Double-stops occur in measures 86 and 87; a degree of
!!!RWG: interpretive license is involved in encoding these measures.
**kern	**kern	**kern
*staff2	*staff1	*staff1
*clefF4	*clefG2	*clefG2
*k[b-]	*k[b-]	*k[b-]
*M6/16	*M6/16	*M6/16
*F:	*F:	*F:
*MM84	*MM84	*MM84
=1	=1	=1
4.r	4.r	8.r
.	.	16fL
.	.	16e
.	.	16fJ
=2	=2	=2
4.r	4.r	8cc
.	.	16r
.	.	16aL
.	.	16g
.	.	16aJ
=3	=3	=3
4.r	4.r	8dd
.	.	16r
.	.	16ccL
.	.	16dd
.	.	16eeJ
=4	=4	=4
4.r	4.r	16ffL
.	.	16ee
.	.	16ddJ
.	.	16ccL
.	.	16dd
.	.	16b-J
=5	=5	=5
4.r	8.r	16aL
.	.	16g
.	.	16fJ
.	16cL	8eL
.	16B-	.
.	16cJ	16b-J
=6	=6	=6
4.r	8f	8aL
.	16r	16ddJ
.	16eL	8gL
.	16d	.
.	16eJ	16ddJ
=7	=7	=7
4.r	8a	8ccL
.	16r	16ffJ
.	16gL	8bnL
.	16a	.
.	16bnJ	16ffJ
=8	=8	=8
4.r	16ccL	16eeL
.	16bn	16dd
.	16aJ	16ccJ
.	16gL	8ggL
.	16a	.
.	16fJ	16bnJ
=9	=9	=9
4.r	16eL	[8.cc
.	16d	.
.	16cJ	.
.	16dL	16cc]L
.	16e	16b-
.	16f#J	16aJ
=10	=10	=10
4.r	[8.g	16b-L
.	.	16cc
.	.	16ddJ
.	16g]L	[8.ee-
.	16fn	.
.	16e-J	.
=11	=11	=11
4.r	16fL	16ee-]L
.	16g	16dd
.	16aJ	16ccJ
.	[8.b-	16ddL
.	.	16een
.	.	16ffJ
=12	=12	=12
4.r	16b-]L	[8.gg
.	16a	.
.	16gJ	.
.	16aL	16gg]L
.	16bn	16ff
.	16cc#J	16eeJ
=13	=13	=13
4.r	[8.dd	16ffL
.	.	16gg
.	.	16aaJ
.	16dd]L	[8.bb-
.	16ccn	.
.	16b-J	.
=14	=14	=14
8.r	16ccL	16bb-]L
.	16dd	16aa
.	16eeJ	16ggJ
16FL	[8.ff	16aaL
16E	.	16bb-
16FJ	.	16aaJ
=15	=15	=15
8c	16ff]L	[8.gg
.	16ee	.
16r	16ddJ	.
16AL	[8.cc	16gg]L
16G	.	16ccc
16AJ	.	16eeJ
=16	=16	=16
8d	16cc]L	8.ff
.	16a	.
16r	[16b-J	.
16cL	8.b-]	16eeL
16d	.	16ff
16eJ	.	16ggJ
=17	=17	=17
16fL	8aL	8ccL
16e	.	.
16dJ	16b-J	16ffJ
16cL	8aL	8ffL
16d	.	.
16B-J	16gJ	16eeJ
=18	=18	=18
16AL	16ccL	8ff
16G	16b-	.
16FJ	16aJ	16r
[8.B-	16gL	8.r
.	16a	.
.	16fJ	.
=19	=19	=19
8.B-]	16eL	16ggL
.	16d	16ff
.	16cJ	16eeJ
8.A	8.f#	16ddL
.	.	16ee-
.	.	16ccJ
=20	=20	=20
16GL	8g	16b-L
16F	.	16a
16EJ	16r	16gJ
16DL	[8.fn	8aL
16E	.	.
16CJ	.	16ddJ
=21	=21	=21
16BBnL	8.f]	8gL
16AA	.	.
16GGJ	.	16ddJ
16CL	8.e	8gL
16BB	.	.
16CJ	.	[16eeJ
=22	=22	=22
8F	8.a	16ee]L
.	.	16cc#
16r	.	[16ddJ
16EL	8.g	16dd]L
16D	.	16bn
16EJ	.	[16ccnJ
=23	=23	=23
8A	[4.f	16cc]L
.	.	16ee
16r	.	16ffJ
16GL	.	16bnL
16A	.	16cc
16BnJ	.	16ddJ
=24	=24	=24
16cL	16f]L	8gL
16Bn	16e	.
16AJ	16fJ	16ccJ
16GL	8eL	8ccL
16A	.	.
16FJ	16dJ	16bnJ
=25	=25	=25
16EL	[8.c	8ccL
16F	.	.
16DJ	.	16gJ
16CL	8c]L	8.b-
16D	.	.
16EJ	[16gJ	.
=26	=26	=26
16FL	8g]L	[8.a
16G	.	.
16EJ	16cJ	.
16DL	[8.f	8a]L
16E	.	.
16FJ	.	16ddJ
=27	=27	=27
16GL	8f]L	[8.g
16A	.	.
16FJ	16BnJ	.
16EL	16cL	8g]L
16F	16d	.
16GJ	16eJ	16gJ
=28	=28	=28
16AL	16fL	[8.cc
16G	16g	.
16FJ	16aJ	.
8GL	8.d	16cc]L
.	.	16cc
16GGJ	.	16bnJ
=29	=29	=29
16cL	16eL	8cc
16Bn	16g	.
16AJ	16fJ	16r
16GL	16eL	8.r
16A	16f	.
16FJ	16dJ	.
=30	=30	=30
16EL	8c	16ggL
16D	.	16ff
16CJ	16r	16eeJ
[8.F	8.r	16ddL
.	.	16ee
.	.	16ccJ
=31	=31	=31
8.F]	16dL	16bnL
.	16c	16a
.	16BnJ	16gJ
8.E	16AL	8cc#
.	16B-	.
.	16GJ	16r
=32	=32	=32
8.D	16FL	16aaL
.	16E	16gg
.	16DJ	16ffJ
8.BB-	[8.G	16eeL
.	.	16ff
.	.	16ddJ
=33	=33	=33
[4.AA	8.G]	16cc#L
.	.	16bn
.	.	16aJ
.	16FL	[8.dd
.	16E	.
.	16DJ	.
=34	=34	=34
8.AA_	16EL	16dd]L
.	16F#	16ccn
.	16G#J	16bnJ
16AA]L	8A	[8.cc
16BB-	.	.
16CJ	16r	.
=35	=35	=35
16DL	8.r	16cc]L
16E	.	16b-
16F#J	.	16aJ
8GL	16GL	[8.b-
.	16A	.
16FnJ	16B-J	.
=36	=36	=36
8.E	[4.c	16b-]L
.	.	16cc
.	.	16b-J
8.E-	.	16aL
.	.	16b-
.	.	16gJ
=37	=37	=37
[4.D	8.c]	16f#L
.	.	16e
.	.	16dJ
.	16B-L	[8.g
.	16A	.
.	16GJ	.
=38	=38	=38
8.D_	16AL	16g]L
.	16Bn	16fn
.	16c#J	16eJ
16D]L	[8.d	16fL
16E	.	16g
16FJ	.	16aJ
=39	=39	=39
8.G	16d]L	[8.b-
.	16cn	.
.	16B-J	.
8.E	[8.c	16b-]L
.	.	16a
.	.	16gJ
=40	=40	=40
[8.F	16c]L	[8.a
.	16d	.
.	16eJ	.
16F]L	[8.f	16a]L
16G	.	16b-
16AJ	.	16ccJ
=41	=41	=41
8.B-	16f]L	[8.dd
.	16e	.
.	16dJ	.
8.G	[8.e	16dd]L
.	.	16cc
.	.	16b-J
=42	=42	=42
[8.A	16e]L	[8.cc
.	16f	.
.	16gJ	.
16A]L	[8.a	16cc]L
16B-	.	16dd
16cJ	.	16eeJ
=43	=43	=43
8.d	16a]L	[8.ff
.	16g	.
.	16fJ	.
8.Bn	[8.g	16ff]L
.	.	16ee
.	.	16ddJ
=44	=44	=44
[8.c	16g]L	[8.ee
.	16a	.
.	16bnJ	.
16c]L	8cc	16ee]L
16d	.	16ff
16eJ	16r	16ggJ
=45	=45	=45
16fL	4.r	16aaL
16e	.	16gg
16dJ	.	16ffJ
16cL	.	16eeL
16d	.	32ff
.	.	32ee
16B-J	.	32dd
.	.	32ccJ
=46	=46	=46
16AL	8r	4.ff
16G	.	.
16FJ	16dd	.
16GL	8bnL	.
16A	.	.
16BnJ	[16gJ	.
=47	=47	=47
16cL	8g]L	16ee-L
16Bn	.	16gg
16AJ	16ccJ	16ff#J
16GL	16bnL	[8.gg
16A-	16cc	.
16FJ	16ddJ	.
=48	=48	=48
16E-L	16ccL	8.gg]
16D	16dd	.
16CJ	16ee-J	.
16DL	[8.a	16ff#L
16En	.	16gg
16F#J	.	16aaJ
=49	=49	=49
16GL	8a]L	16b-L
16Fn	.	16dd
16E-J	16gJ	16ccJ
16DL	8gL	16b-L
16E-	.	16cc
16CJ	16f#J	16aJ
=50	=50	=50
16BB-L	4.g	8gL
16AA	.	.
16GGJ	.	16ee-J
16AAL	.	8cc#L
16BBn	.	.
16C#J	.	[16aJ
=51	=51	=51
16DL	8fL	16a]L
16Cn	.	16a
16BB-J	16gJ	16ddJ
16AAL	8a	16cc#L
16BB-	.	16dd
16GGJ	16r	16eeJ
=52	=52	=52
16FFL	8.r	16ddL
16EE	.	16ee
16DDJ	.	16ffJ
8D	16FL	[8.b-
.	16E	.
16r	16FJ	.
=53	=53	=53
8E	8c	16b-]L
.	.	16ee
16r	16r	16ggJ
8E-	16AL	[8.cc
.	16G	.
16r	16AJ	.
=54	=54	=54
16DL	8d	16cc]L
16En	.	16b-
16FJ	16r	16aJ
16EL	16cL	8b-
16F	16d	.
16GJ	16eJ	16r
=55	=55	=55
8AAL	16fL	8r
.	16e	.
16BB-J	16dJ	16b-
8CL	16cL	8aL
.	16d	.
16C#J	16B-J	16gJ
=56	=56	=56
[8.D	16AL	[8.f
.	16G	.
.	16FJ	.
16D]L	[8.B-	16f]L
16Cn	.	16e-
16BB-J	.	16dJ
=57	=57	=57
[8.F	16B-]L	[8.c
.	16A	.
.	16GJ	.
8F]L	[8.A	16c]L
.	.	16d
16E-J	.	16e-J
=58	=58	=58
8DL	16A]L	[8.f
.	16B-	.
16CJ	16cJ	.
8BB-L	[8.d	16f]L
.	.	16g
16AAJ	.	16aJ
=59	=59	=59
8GGL	16d]L	[8.b-
.	16e-	.
16FFJ	16fJ	.
8EE-L	[8.g	16b-]L
.	.	16cc
16DDJ	.	16ddJ
=60	=60	=60
[8.CC	16g]L	[4.ee-
.	16a	.
.	16b-J	.
16CC]L	8ccL	.
16DD	.	.
16EE-J	16b-J	.
=61	=61	=61
[4.FF	8.a	16ee-]L
.	.	16dd
.	.	16ccJ
.	[8.b-	16ddL
.	.	16ee-
.	.	16ddJ
=62	=62	=62
4.FF_	16b-]L	[8.cc
.	16a	.
.	16gJ	.
.	[8.a	16cc]L
.	.	16cc
.	.	16ffJ
=63	=63	=63
4.FF_	16a]L	[8.b-
.	16g	.
.	16fJ	.
.	[8.g	16b-]L
.	.	16b-
.	.	16ee-J
=64	=64	=64
4.FF_	16g]L	[8.a
.	16f	.
.	16enJ	.
.	[8.f	16a]L
.	.	16a
.	.	16ddJ
=65	=65	=65
8FF]	16f]L	[8.g
.	16e-	.
16r	16dJ	.
8.r	[8.e-	16g]L
.	.	16g
.	.	16ccJ
=66	=66	=66
8.r	16e-]L	[8.f
.	16d	.
.	16cJ	.
16BB-L	8.d	8f]L
16AA	.	.
16BB-J	.	[16b-J
=67	=67	=67
8F	8.c	16b-]L
.	.	16g
16r	.	[16aJ
16DL	[8.f	8a]L
16C	.	.
16DJ	.	16ddJ
=68	=68	=68
8G	16f]L	8.b-
.	16d	.
16r	16e-J	.
16FL	8.r	16aL
16G	.	16b-
16AJ	.	16ccJ
=69	=69	=69
16B-L	4.r	16ddL
16A	.	16cc
16GJ	.	16ee-J
16FL	.	16ddL
16G	.	16ee-
16E-J	.	16ccJ
=70	=70	=70
16DL	8.r	[4.b-
16C	.	.
16BB-J	.	.
16B-L	16dL	.
16c	16e-	.
16dJ	16fJ	.
=71	=71	=71
16e-L	16gL	4.b-_
16d	16f	.
16cJ	16a-J	.
16B-L	16gL	.
16c	16a-	.
16A-J	16fJ	.
=72	=72	=72
8GL	16enL	8.b-_
.	16f	.
16FJ	16gJ	.
8EnL	[8.c	16b-]L
.	.	16g
16CJ	.	16a-J
=73	=73	=73
8F	16c]L	[8.a-
.	16A-	.
16r	16B-J	.
8D	[8.B-	16a-]L
.	.	16f
16r	.	16gJ
=74	=74	=74
8En	16B-]L	[8.g
.	16G	.
16r	16A-J	.
8F	[8.A-	16g]L
.	.	16en
16r	.	16fJ
=75	=75	=75
8D-	16A-]L	[8.f
.	16F	.
16r	16GJ	.
8BBn	[8.G	16f]L
.	.	16d
16r	.	16enJ
=76	=76	=76
[4.C	16G]L	8e
.	16Bn	.
.	[16cJ	16r
.	16c]L	[8.a-
.	16e	.
.	16fJ	.
=77	=77	=77
4.C_	[8.B-	16a-]L
.	.	16g
.	.	16fJ
.	16B-]L	[8.g
.	16E	.
.	16GJ	.
=78	=78	=78
4.C_	[4.A-	16g]L
.	.	16f
.	.	16eJ
.	.	16fL
.	.	16cc
.	.	16ffJ
=79	=79	=79
4.C_	16A-]L	[8.b-
.	16G	.
.	16FJ	.
.	16EL	16b-]L
.	16G	16ee
.	[16B-J	16ggJ
=80	=80	=80
4.C_	16B-]L	[8.cc
.	16A-	.
.	16GJ	.
.	16FL	16cc]L
.	16A-	16ff
.	16cJ	16aa-J
=81	=81	=81
4.C_	16cL	8dd-L
.	16B-	.
.	16A-J	16ffJ
.	16GL	8bb-L
.	16A-	.
.	16FJ	16dd-J
=82	=82	=82
16C]L	8E	8ccL
16D	.	.
16EJ	16r	16bb-J
16FL	8.r	8aa-L
16G	.	.
16A-J	.	16ffJ
=83	=83	=83
4.DD	8.r	16bnL
.	.	16ff
.	.	16ggJ
.	8.BBn	16aa-L
.	.	16gg
.	.	[16ffJ
=84	=84	=84
8CC	8CL	16ff]L
.	.	16een
16r	16DJ	[16dd-J
8r	8EL	16dd-]L
.	.	16cc
[16C	16CJ	[16b-J
=85	=85	=85
8C]	8FL	16b-]L
.	.	16a-
16r	16GJ	16gJ
8.A-	16r	16fL
.	16cL	16e
.	16BnJ	[16fJ
=86	=86	=86
8C 8G	8cc 8c	16f]L
.	.	16d
16r	16r	16eJ
8C 8F	8e- 8c	16anL
.	.	16g
16r	16r	16aJ
=87	=87	=87
16BB-L	8f 8d- 8B-	8dd- 8b-
16D-	.	.
16FJ	16r	16r
16B-L	8.r	16ccL
16A	.	16ddn
16GJ	.	16eenJ
=88	=88	=88
8AL	8r	16ffL
.	.	16ee
16B-J	16b-	16ddJ
8cL	8aL	16ccL
.	.	16dd
16CJ	16gJ	16b-J
=89	=89	=89
8F	16f	16aL
.	8r	32f
.	.	32g
16r	.	32a
.	.	32b-J
16FFL	16r	[8.cc
16EE	16aL	.
16FFJ	16e-J	.
=90	=90	=90
8BB-	16e-L	8.cc]
.	32d	.
.	32f	.
16r	32g	.
.	32aJ	.
16GGL	16b-L	[8.b-
16FF	16d	.
16GGJ	16fJ	.
=91	=91	=91
8C	16fL	16.b-]L
.	[8enJ	.
.	.	32g
16r	.	32a
.	.	32b-J
16AAL	16e]L	[8.cc
16GG	16e	.
16AAJ	16gJ	.
=92	=92	=92
8D	16gL	16.cc]L
.	[8fJ	.
.	.	32a
16r	.	32b-
.	.	32ccJ
16BB-L	32f]L	[8.dd
.	32cc	.
16AA	32b-	.
.	32a	.
16BB-J	32g	.
.	32fJ	.
=93	=93	=93
8E	16g	32dd]L
.	.	32b-
.	16r	32cc
.	.	32dd
16r	16r	32ee
.	.	32ffJ
16CL	8.r	32ggL
.	.	32ff
16D	.	32ee
.	.	32dd
16EJ	.	32cc
.	.	32b-J
=94	=94	=94
16FL	8.r	16aL
16E	.	16cc
16DJ	.	16b-J
16CL	8r	[8.cc
16D	.	.
16BB-J	16e	.
=95	=95	=95
16AAL	8fL	8cc]L
16BB-	.	.
16GGJ	16b-J	16ddJ
16FFL	16aL	8.ee-
16GG	16b-	.
16AAJ	[16ccJ	.
=96	=96	=96
16BB-L	8cc]L	[8.dd
16C	.	.
16AAJ	16fJ	.
16GGL	[8.b-	8dd]L
16AA	.	.
16BB-J	.	16ggJ
=97	=97	=97
16CL	8b-]L	[8.ee
16D	.	.
16BB-J	16gJ	.
16AAL	[8.cc	8ee]L
16BB-	.	.
16CJ	.	16aaJ
=98	=98	=98
16DL	16cc]L	8ffL
16C	16a	.
16BB-J	16b-J	16ddJ
8CL	8fL	16aL
.	.	16b-
16CCJ	16eJ	16gJ
=99	=99	=99
4.FF	4.f	4.f
==	==	==
*-	*-	*-
!!!OTA: Das wohltemperirte Clavier
!!!OCY: Deutschland
!!!PPP: Leipzig
!!!ODT: 1738//-1742//
!!!PDT: 1739//-1742//
!!!AFR: fuga; fugue
!!!AST: polyphony
!!!AMT: compound duple
!!!SCA: Bach-Werke-Verzeichnis
!!!YOR: Bach-Gesellschaft Ausgabe, Band 14
!!!YOO: Breitkopf und Härtel
!!!YOY: 1866
!!!YOE: Franz Kroll (1820-1877)
!!!AIN: cemba; clavi
!!!YEC: Copyright 1994, David Huron
!!!YEM: Rights to all derivative electronic formats reserved.
!!!ENC: David Huron
!!!END: 1986/12/04
!!!EED: David Huron
!!!YER: 1994/08/10
!!!EED2: Craig Stuart Sapp (notational niceties)
!!!EEV: 2020/09/19
!!!EFL: 35/48
